polaris-icons/icons/new-icons/DiscountCodeMajor.svg

<svg width="20" height="20" viewBox="0 0 20 20" fill="none" xmlns="http://www.w3.org/2000/svg">
<path d="M3.25 5C3.25 4.0335 4.0335 3.25 5 3.25H5.5C5.91421 3.25 6.25 3.58579 6.25 4C6.25 4.41421 5.91421 4.75 5.5 4.75H5C4.86193 4.75 4.75 4.86193 4.75 5V5.5C4.75 5.91421 4.41421 6.25 4 6.25C3.58579 6.25 3.25 5.91421 3.25 5.5V5Z" fill="#4A4A4A"/>
<path d="M12.7803 7.21967C13.0732 7.51256 13.0732 7.98744 12.7803 8.28033L8.28033 12.7803C7.98744 13.0732 7.51256 13.0732 7.21967 12.7803C6.92678 12.4874 6.92678 12.0126 7.21967 11.7197L11.7197 7.21967C12.0126 6.92678 12.4874 6.92678 12.7803 7.21967Z" fill="#4A4A4A"/>
<path d="M9 8C9 8.55229 8.55228 9 8 9C7.44772 9 7 8.55229 7 8C7 7.44772 7.44772 7 8 7C8.55228 7 9 7.44772 9 8Z" fill="#4A4A4A"/>
<path d="M12 13C12.5523 13 13 12.5523 13 12C13 11.4477 12.5523 11 12 11C11.4477 11 11 11.4477 11 12C11 12.5523 11.4477 13 12 13Z" fill="#4A4A4A"/>
<path d="M3.25 15C3.25 15.9665 4.0335 16.75 5 16.75H5.5C5.91421 16.75 6.25 16.4142 6.25 16C6.25 15.5858 5.91421 15.25 5.5 15.25H5C4.86193 15.25 4.75 15.1381 4.75 15V14.5C4.75 14.0858 4.41421 13.75 4 13.75C3.58579 13.75 3.25 14.0858 3.25 14.5V15Z" fill="#4A4A4A"/>
<path d="M16.75 15C16.75 15.9665 15.9665 16.75 15 16.75H14.5C14.0858 16.75 13.75 16.4142 13.75 16C13.75 15.5858 14.0858 15.25 14.5 15.25H15C15.1381 15.25 15.25 15.1381 15.25 15V14.5C15.25 14.0858 15.5858 13.75 16 13.75C16.4142 13.75 16.75 14.0858 16.75 14.5V15Z" fill="#4A4A4A"/>
<path d="M16.75 5C16.75 4.0335 15.9665 3.25 15 3.25H14.5C14.0858 3.25 13.75 3.58579 13.75 4C13.75 4.41421 14.0858 4.75 14.5 4.75H15C15.1381 4.75 15.25 4.86193 15.25 5V5.5C15.25 5.91421 15.5858 6.25 16 6.25C16.4142 6.25 16.75 5.91421 16.75 5.5V5Z" fill="#4A4A4A"/>
<path d="M16 8.25C16.4142 8.25 16.75 8.58579 16.75 9V11C16.75 11.4142 16.4142 11.75 16 11.75C15.5858 11.75 15.25 11.4142 15.25 11V9C15.25 8.58579 15.5858 8.25 16 8.25Z" fill="#4A4A4A"/>
<path d="M11 16.75C11.4142 16.75 11.75 16.4142 11.75 16C11.75 15.5858 11.4142 15.25 11 15.25H9C8.58579 15.25 8.25 15.5858 8.25 16C8.25 16.4142 8.58579 16.75 9 16.75H11Z" fill="#4A4A4A"/>
<path d="M4 8.25C4.41421 8.25 4.75 8.58579 4.75 9V11C4.75 11.4142 4.41421 11.75 4 11.75C3.58579 11.75 3.25 11.4142 3.25 11V9C3.25 8.58579 3.58579 8.25 4 8.25Z" fill="#4A4A4A"/>
<path d="M11 4.75C11.4142 4.75 11.75 4.41421 11.75 4C11.75 3.58579 11.4142 3.25 11 3.25H9C8.58579 3.25 8.25 3.58579 8.25 4C8.25 4.41421 8.58579 4.75 9 4.75L11 4.75Z" fill="#4A4A4A"/>
</svg>

<svg viewBox="0 0 20 20" xmlns="http://www.w3.org/2000/svg"><path d="M3.25 5c0-.966.784-1.75 1.75-1.75h.5a.75.75 0 0 1 0 1.5h-.5a.25.25 0 0 0-.25.25v.5a.75.75 0 0 1-1.5 0v-.5Z" fill="#5C5F62"/><path d="M12.78 7.22a.75.75 0 0 1 0 1.06l-4.5 4.5a.75.75 0 0 1-1.06-1.06l4.5-4.5a.75.75 0 0 1 1.06 0Z" fill="#5C5F62"/><path d="M9 8a1 1 0 1 1-2 0 1 1 0 0 1 2 0Z" fill="#5C5F62"/><path d="M12 13a1 1 0 1 0 0-2 1 1 0 0 0 0 2Z" fill="#5C5F62"/><path d="M3.25 15c0 .966.784 1.75 1.75 1.75h.5a.75.75 0 0 0 0-1.5h-.5a.25.25 0 0 1-.25-.25v-.5a.75.75 0 0 0-1.5 0v.5Z" fill="#5C5F62"/><path d="M16.75 15a1.75 1.75 0 0 1-1.75 1.75h-.5a.75.75 0 0 1 0-1.5h.5a.25.25 0 0 0 .25-.25v-.5a.75.75 0 0 1 1.5 0v.5Z" fill="#5C5F62"/><path d="M16.75 5a1.75 1.75 0 0 0-1.75-1.75h-.5a.75.75 0 0 0 0 1.5h.5a.25.25 0 0 1 .25.25v.5a.75.75 0 0 0 1.5 0v-.5Z" fill="#5C5F62"/><path d="M16 8.25a.75.75 0 0 1 .75.75v2a.75.75 0 0 1-1.5 0v-2a.75.75 0 0 1 .75-.75Z" fill="#5C5F62"/><path d="M11 16.75a.75.75 0 0 0 0-1.5h-2a.75.75 0 0 0 0 1.5h2Z" fill="#5C5F62"/><path d="M4 8.25a.75.75 0 0 1 .75.75v2a.75.75 0 0 1-1.5 0v-2a.75.75 0 0 1 .75-.75Z" fill="#5C5F62"/><path d="M11 4.75a.75.75 0 0 0 0-1.5h-2a.75.75 0 0 0 0 1.5h2Z" fill="#5C5F62"/></svg>
